libs/ui/packages/crypto-icons/src/svg/HPB.svg

<svg width="24" height="24" viewBox="0 0 24 24" fill="none">
<path d="M12.4361 11.4539C12.4361 11.4539 13.4313 9.24138 11.4798 7.10388C11.4798 7.10388 10.3698 5.67888 8.0748 5.79138L8.53305 5.61138C8.60955 5.58138 8.6898 5.56038 8.7708 5.54988L9.2223 5.49138L12.3978 5.00388C12.3978 5.00388 13.5206 4.78338 14.3718 5.02638C14.6141 5.09613 14.8346 5.22738 15.0093 5.40588C15.4788 5.88138 16.4216 7.13913 15.8043 9.12888C15.8043 9.12888 15.1916 11.3414 12.8958 11.8664C12.8958 11.8664 12.3213 12.0164 12.4361 11.4539ZM12.2943 12.6869C12.2943 12.6869 13.7291 14.6541 16.6008 14.0999C16.6008 14.0999 18.4173 13.8906 19.4891 11.8971L19.4126 12.3764C19.3998 12.4559 19.3773 12.5339 19.3451 12.6081L19.1666 13.0184L17.9756 15.9434C17.9756 15.9434 17.5968 17.0016 16.9496 17.5956C16.7637 17.7649 16.5375 17.8834 16.2926 17.9399C15.6363 18.0921 14.0516 18.2459 12.6191 16.7114C12.6191 16.7114 10.9893 15.0674 11.6988 12.8639C11.6988 12.8624 11.8593 12.3036 12.2943 12.6869ZM11.2556 11.9766C11.2556 11.9766 8.80305 12.2346 7.8843 14.9579C7.8843 14.9579 7.1763 16.6109 8.4198 18.5054L8.03205 18.2054C7.9676 18.1556 7.90965 18.0979 7.85955 18.0336L7.58205 17.6796L5.56905 15.2249C5.56905 15.2249 4.8138 14.3796 4.60605 13.5374C4.54605 13.2959 4.55205 13.0424 4.62255 12.8039C4.8093 12.1686 5.45205 10.7414 7.5198 10.2749C7.5198 10.2749 9.78255 9.69213 11.3913 11.3819C11.3928 11.3819 11.8113 11.7944 11.2563 11.9766H11.2556Z" fill="#1591CA"/>
<path opacity="0.5" d="M12.8365 12.1191C12.8365 12.1191 15.2815 11.8011 16.129 9.05538C16.129 9.05538 16.7943 7.38513 15.5013 5.52213L15.8973 5.81238C15.9625 5.86113 16.0225 5.91738 16.0743 5.97963L16.36 6.32613L18.4375 8.73063C18.4375 8.73063 19.213 9.55563 19.444 10.3941C19.5093 10.6341 19.5093 10.8861 19.444 11.1261C19.2738 11.7659 18.6685 13.2096 16.6128 13.7271C16.6128 13.7271 14.3658 14.3646 12.7143 12.7176C12.7158 12.7176 12.2868 12.3156 12.8365 12.1191ZM11.608 12.5721C11.608 12.5721 10.5573 14.7591 12.4533 16.9439C12.4533 16.9439 13.525 18.3951 15.8245 18.3389L15.361 18.5076C15.2838 18.5355 15.2034 18.5539 15.1218 18.5624L14.6695 18.6104L11.482 19.0199C11.482 19.0199 10.3548 19.2126 9.50952 18.9486C9.26981 18.873 9.05362 18.7368 8.88177 18.5534C8.42427 18.0659 7.51452 16.7864 8.18277 14.8131C8.18277 14.8131 8.85027 12.6156 11.1595 12.1476C11.1595 12.1499 11.7393 12.0126 11.608 12.5721ZM11.6898 11.4194C11.6898 11.4194 10.2258 9.47238 7.36302 10.0694C7.36302 10.0694 5.54952 10.3034 4.50702 12.3119L4.57602 11.8311C4.58781 11.7513 4.60948 11.6732 4.64052 11.5986L4.81302 11.1861L5.96052 8.24313C5.96052 8.24313 6.32427 7.17963 6.96252 6.57663C7.14663 6.40507 7.37189 6.28391 7.61652 6.22488C8.27052 6.06213 9.85302 5.88738 11.3065 7.40163C11.3065 7.40163 12.9603 9.02238 12.283 11.2356C12.283 11.2341 12.13 11.7966 11.6898 11.4194Z" fill="#1591CA"/>
</svg>

<svg width="24" height="24" viewBox="0 0 24 24" fill="none"><path fill="#1591ca" d="M12.436 11.454s.995-2.213-.956-4.35c0 0-1.11-1.425-3.405-1.313l.458-.18q.116-.045.238-.061l.451-.059 3.176-.487s1.123-.22 1.974.022c.242.07.463.201.637.38.47.475 1.413 1.733.795 3.723 0 0-.612 2.212-2.908 2.737 0 0-.575.15-.46-.412m-.142 1.233s1.435 1.967 4.307 1.413c0 0 1.816-.21 2.888-2.203l-.076.48a1 1 0 0 1-.068.231l-.178.41-1.191 2.925s-.38 1.059-1.026 1.653a1.5 1.5 0 0 1-.657.344c-.657.152-2.241.306-3.674-1.229 0 0-1.63-1.644-.92-3.847 0-.002.16-.56.595-.177m-1.038-.71s-2.453.258-3.372 2.98c0 0-.708 1.654.536 3.548l-.388-.3a1 1 0 0 1-.172-.171l-.278-.354-2.013-2.455s-.755-.845-.963-1.688a1.4 1.4 0 0 1 .017-.733c.186-.635.829-2.063 2.897-2.53 0 0 2.263-.582 3.871 1.108.002 0 .42.412-.135.595"/><path fill="#1591ca" d="M12.837 12.12s2.444-.319 3.292-3.065c0 0 .665-1.67-.628-3.533l.396.29q.1.074.177.168l.286.346 2.078 2.405s.775.825 1.006 1.663c.065.24.065.492 0 .732-.17.64-.775 2.084-2.831 2.601 0 0-2.247.638-3.899-1.01.002 0-.427-.401.122-.598m-1.229.452s-1.05 2.187.845 4.372c0 0 1.072 1.451 3.372 1.395l-.464.169a1 1 0 0 1-.24.054l-.452.048-3.187.41s-1.127.193-1.972-.071a1.46 1.46 0 0 1-.628-.396c-.458-.487-1.367-1.767-.7-3.74 0 0 .668-2.197 2.977-2.665 0 .002.58-.135.449.424m.082-1.153s-1.464-1.947-4.327-1.35c0 0-1.813.234-2.856 2.243l.069-.48a1 1 0 0 1 .065-.233l.172-.413L5.96 8.242s.363-1.063 1.002-1.666c.184-.172.409-.293.654-.352.654-.163 2.236-.338 3.69 1.177 0 0 1.653 1.62.976 3.834 0-.002-.153.56-.593.183" opacity=".5"/></svg>
